svgs/duotone/chess-board.svg

<svg xmlns="http://www.w3.org/2000/svg" viewBox="0 0 448 512"><!--! Font Awesome Pro 6.3.0 by @fontawesome - https://fontawesome.com License - https://fontawesome.com/license (Commercial License) Copyright 2023 Fonticons, Inc. --><defs><style>.fa-secondary{opacity:.4}</style></defs><path class="fa-primary" d="M64 160v64h64V160H64zM256 416h64v-64h-64V416zM192 96H128v64h64V96zM384 352V288h-64v64H384zM128 416h64v-64H128V416zM64 288v64h64V288H64zM320 96h-64v64h64V96zM192 288v64h64V288H192zM256 224v64h64V224H256zM256 224V160H192v64H256zM384 224V160h-64v64H384zM192 224H128v64h64V224z"/><path class="fa-secondary" d="M384 32H64C28.65 32 0 60.65 0 96v320c0 35.35 28.65 64 64 64h320c35.35 0 64-28.65 64-64V96C448 60.65 419.3 32 384 32zM384 416H64V96h320V416z"/></svg>

<svg xmlns="http://www.w3.org/2000/svg" viewBox="0 0 448 512"><!-- Font Awesome Pro 6.0.0-alpha2 by @fontawesome - https://fontawesome.com License - https://fontawesome.com/license (Commercial License) --><defs><style>.fa-secondary{opacity:.4}</style></defs><path d="M384 32H64C28.654 32 0 60.652 0 96V416C0 451.346 28.654 480 64 480H384C419.346 480 448 451.346 448 416V96C448 60.652 419.346 32 384 32ZM384 416H64V96H384V416Z" class="fa-secondary"/><path d="M64 160V224H128V160H64ZM256 416H320V352H256V416ZM192 96H128V160H192V96ZM384 352V288H320V352H384ZM128 416H192V352H128V416ZM64 288V352H128V288H64ZM320 96H256V160H320V96ZM192 288V352H256V288H192ZM256 224V288H320V224H256ZM256 224V160H192V224H256ZM384 224V160H320V224H384ZM192 224H128V288H192V224Z" class="fa-primary"/></svg>
